src/topics/icons/android.svg

<svg height="111" preserveAspectRatio="xMidYMid" viewBox="0 0 512 111" width="512" xmlns="http://www.w3.org/2000/svg"><g fill="#77c159"><path d="m.25599922 69.6453823c0-5.7821612.96799548-11.1771085 2.90398645-16.1849606 1.93599097-5.0076935 4.64637039-9.370136 8.13117793-13.0873275 3.4847679-3.7170329 7.6536034-6.6339053 12.5065461-8.7506966 4.8528634-2.1165931 10.1703757-3.1749491 15.9525766-3.1750284 4.3882145.0000793 8.3763686.6454097 11.9644623 1.935991 3.5880144 1.2907399 7.0598963 3.407452 10.4156853 6.3500567v-6.7372311h19.6696889v79.2983932h-19.6696889v-6.737271c-3.355789 2.942724-6.8276709 5.059396-10.4156853 6.350057-3.5880937 1.29066-7.5762478 1.935991-11.9644623 1.935991-5.7822009 0-11.0997132-1.058356-15.9525766-3.175029-4.8529427-2.116672-9.0217782-5.033584-12.5065461-8.7506962-3.48480754-3.7171122-6.19518696-8.0795547-8.13117793-13.0873275s-2.90398645-10.40272-2.90398645-16.184921zm42.04983648 22.6898475c1.5487372.0000396 3.174949-.1677161 4.878675-.5033466 1.7036467-.3354322 3.420219-.9034465 5.1497566-1.7036863 1.7294583-.8002001 3.420219-1.8714421 5.0723217-3.2137656 1.6519838-1.3422443 3.2265723-2.9943073 4.7238449-4.9561496v-24.6258384c-1.4972726-1.9617629-3.0718611-3.6009004-4.7238449-4.917452-1.6521027-1.3163929-3.3428634-2.3876746-5.0723217-3.2137259-1.7295376-.8259721-3.4461099-1.4067932-5.1497566-1.7424236-1.703726-.3354322-3.3299378-.5032673-4.878675-.5033466-3.0460099.0000793-5.8984128.5679351-8.5571293 1.7036864-2.6587958 1.1358305-4.9690752 2.7233447-6.9308381 4.7625425-1.9618423 2.0393168-3.4977332 4.439917-4.6076728 7.2019197-1.1100189 2.7620423-1.6649887 5.7692753-1.6649887 9.0217385 0 3.2525029.5549698 6.2597359 1.6649887 9.0217386 1.1099396 2.7620423 2.6458305 5.1626822 4.6076728 7.20188 1.9617629 2.0392772 4.2720423 3.6267913 6.9308381 4.7625426 2.6587165 1.1358305 5.5111194 1.7037259 8.5571293 1.7036863z"/><path d="m130.97036 48.0231291c-9.320654.0681967-17.416861 6.5631315-17.416861 16.2014547v45.0699952h-19.6697285v-44.5279113c.1098283-18.5677188 16.1894415-36.069112 36.8047235-36.3192985h.549419c20.615283.2501865 36.694975 17.7515797 36.804724 36.3192985v44.5279113h-19.669729v-45.0699952c0-9.6383232-8.096207-16.1332977-17.416861-16.2014547"/><path d="m177.35429 69.6453823c0-5.7821612.967995-11.1771085 2.903986-16.1849606 1.935991-5.0076935 4.646371-9.370136 8.131178-13.0873275 3.484768-3.7170329 7.653604-6.6339053 12.506546-8.7506966 4.852864-2.1165931 10.170376-3.1749491 15.952617-3.1750284 4.388214.0000793 8.389254.6454097 12.00316 1.935991 3.613786 1.2907399 7.072782 3.3816403 10.376948 6.2726218v-30.43385094h19.669689v103.07244794h-19.669689v-6.659836c-3.304166 2.942724-6.763162 5.04651-10.376948 6.311359-3.613906 1.264849-7.614946 1.897254-12.00316 1.897254-5.782241 0-11.099753-1.058356-15.952617-3.175029-4.852942-2.116672-9.021778-5.033584-12.506546-8.7506962-3.484807-3.7171122-6.195187-8.0795547-8.131178-13.0873275s-2.903986-10.40272-2.903986-16.184921zm42.049836 22.6898475c1.548738.0000396 3.174989-.1677161 4.878715-.5033466 1.703607-.3354322 3.420179-.9034465 5.149717-1.7036863 1.729458-.8002001 3.420219-1.8714421 5.072322-3.2137656 1.651984-1.3422443 3.226612-2.9943073 4.723845-4.9561496v-24.6258384c-1.497233-1.9617629-3.071861-3.6009004-4.723845-4.917452-1.652103-1.3163929-3.342864-2.3876746-5.072322-3.2137259-1.729538-.8259721-3.44611-1.4067932-5.149717-1.7424236-1.703726-.3354322-3.329977-.5032673-4.878715-.5033466-3.046009.0000793-5.898373.5679351-8.557129 1.7036864-2.658796 1.1358305-4.969075 2.7233447-6.930838 4.7625425-1.961842 2.0393168-3.497733 4.439917-4.607673 7.2019197-1.110019 2.7620423-1.664988 5.7692753-1.664949 9.0217385-.000039 3.2525029.55493 6.2597359 1.664949 9.0217386 1.10994 2.7620423 2.645831 5.1626822 4.607673 7.20188 1.961763 2.0392772 4.272042 3.6267913 6.930838 4.7625426 2.658756 1.1358305 5.51112 1.7037259 8.557129 1.7036863z"/><path d="m351.011268 92.3352298c2.942684.0000396 5.717573-.5549698 8.324785-1.6649491 2.607094-1.1099396 4.878636-2.6716421 6.814706-4.6851076 1.935912-2.0134259 3.458917-4.4011401 4.568935-7.1631825 1.1099-2.7620026 1.66491-5.8208589 1.66495-9.1766083-.00004-3.3040865-.567936-6.337131-1.703647-9.099213-1.13587-2.7619631-2.684647-5.1496773-4.64641-7.1631825-1.961842-2.0133465-4.233424-3.5879747-6.814706-4.7238052-2.581361-1.1357513-5.317591-1.7036071-8.208613-1.7036864-2.942763.0000793-5.717691.5679351-8.324785 1.7036864-2.607172 1.1358305-4.878754 2.7104587-6.814705 4.7238052-1.936031 2.0135052-3.471922 4.4012194-4.607673 7.1631825-1.135791 2.762082-1.703686 5.7951265-1.703686 9.099213 0 3.3557494.554969 6.4146057 1.664988 9.1766083 1.10994 2.7620424 2.632905 5.1497566 4.568936 7.1631825 1.935951 2.0134655 4.207533 3.575168 6.814706 4.6851076 2.607093 1.1099793 5.407833 1.6649887 8.402219 1.6649491zm0 18.5081262c-5.730577 0-11.125564-1.032545-16.184921-3.097594-5.059435-2.065049-9.486387-4.943224-13.280934-8.6345242-3.794547-3.6913005-6.788894-8.053743-8.983041-13.0873275-2.194107-5.0335844-3.291161-10.4930805-3.291161-16.378528 0-5.7304983 1.097054-11.0996736 3.291161-16.1074861 2.194147-5.0077331 5.175568-9.3701756 8.944304-13.0873671 3.768735-3.7170329 8.195726-6.646831 13.280934-8.7893942 5.085208-2.1424444 10.493081-3.2136864 16.223658-3.2137657 5.730499.0000793 11.125486 1.0713213 16.184921 3.2137657 5.059357 2.1425632 9.473423 5.0723613 13.242198 8.7893942 3.768695 3.7171915 6.750117 8.079634 8.944303 13.0873671 2.194068 5.0078125 3.291121 10.3769878 3.291201 16.1074861-.00008 5.8854475-1.097133 11.3449436-3.291201 16.378528-2.194186 5.0335845-5.188533 9.396027-8.983001 13.0873275-3.794626 3.6913002-8.208692 6.5694752-13.242197 8.6345242-5.033664 2.065049-10.415725 3.097594-16.146224 3.097594z"/><path d="m411.322097 23.7867648c-1.593659.0000793-3.100131-.3112462-4.519413-.9337783-1.419362-.622413-2.664347-1.4690027-3.735034-2.5398085-1.070726-1.0706473-1.917356-2.3156321-2.539848-3.7350336-.622532-1.4192034-.933778-2.9256746-.933778-4.5194137 0-1.5935012.311246-3.1124223.933778-4.55676323.622492-1.44410304 1.469122-2.70153765 2.539848-3.77238315 1.070687-1.07060761 2.315672-1.91719725 3.735034-2.53980859 1.419282-.62241308 2.925754-.93365928 4.519413-.93377823 1.593581.00011895 3.112502.3112462 4.556724.93377823 1.444182.62261134 2.701657 1.46920098 3.772383 2.53980859 1.070687 1.0708455 1.917316 2.32828011 2.539848 3.77238315.622493 1.44434093.933739 2.96326203.933779 4.55676323-.00004 1.5937391-.311247 3.1002103-.933779 4.5194137-.622532 1.4194015-1.469161 2.6643863-2.539848 3.7350336-1.070726 1.0708058-2.328201 1.9173955-3.772383 2.5398085-1.444222.6226114-2.963143.9338576-4.556724.9337783z"/><path d="m401.485845 29.9961858h19.669729v79.2983932h-19.669729z"/><path d="m430.199873 69.6453823c0-5.7821612.967995-11.1771085 2.903986-16.1849606 1.935991-5.0076935 4.646371-9.370136 8.131178-13.0873275 3.484768-3.7170329 7.653604-6.6339053 12.506546-8.7506966 4.852864-2.1165931 10.170376-3.1749491 15.952617-3.1750284 4.388214.0000793 8.389254.6454097 12.003159 1.935991 3.613787 1.2907399 7.072783 3.3816403 10.376949 6.2726218v-30.43385094h19.669688v103.07244794h-19.669688v-6.659836c-3.304166 2.942724-6.763162 5.04651-10.376949 6.311359-3.613905 1.264849-7.614945 1.897254-12.003159 1.897254-5.782241 0-11.099753-1.058356-15.952617-3.175029-4.852942-2.116672-9.021778-5.033584-12.506546-8.7506962-3.484807-3.7171122-6.195187-8.0795547-8.131178-13.0873275s-2.903986-10.40272-2.903986-16.184921zm42.049836 22.6898475c1.548738.0000396 3.174989-.1677161 4.878715-.5033466 1.703607-.3354322 3.420179-.9034465 5.149717-1.7036863 1.729458-.8002001 3.420219-1.8714421 5.072322-3.2137656 1.651983-1.3422443 3.226612-2.9943073 4.723845-4.9561496v-24.6258384c-1.497233-1.9617629-3.071862-3.6009004-4.723845-4.917452-1.652103-1.3163929-3.342864-2.3876746-5.072322-3.2137259-1.729538-.8259721-3.44611-1.4067932-5.149717-1.7424236-1.703726-.3354322-3.329977-.5032673-4.878715-.5033466-3.04601.0000793-5.898373.5679351-8.557129 1.7036864-2.658796 1.1358305-4.969075 2.7233447-6.930838 4.7625425-1.961842 2.0393168-3.497733 4.439917-4.607673 7.2019197-1.110019 2.7620423-1.664989 5.7692753-1.664949 9.0217385-.00004 3.2525029.55493 6.2597359 1.664949 9.0217386 1.10994 2.7620423 2.645831 5.1626822 4.607673 7.20188 1.961763 2.0392772 4.272042 3.6267913 6.930838 4.7625426 2.658756 1.1358305 5.511119 1.7037259 8.557129 1.7036863z"/><path d="m307.396914 47.7854719c-13.181732 0-18.994621 6.8007887-18.994621 16.4391119v45.0699952h-19.669729v-44.5279113c.109828-18.5677188 10.835174-36.8216141 38.66435-36.8216141"/></g></svg>

<?xml version="1.0" encoding="UTF-8" standalone="no"?>
<svg width="512px" height="111px" viewBox="0 0 512 111" version="1.1" xmlns="http://www.w3.org/2000/svg" xmlns:xlink="http://www.w3.org/1999/xlink" preserveAspectRatio="xMidYMid">
	<g fill="#77C159">
		<path d="M0.255999215,69.6453823 C0.255999215,63.8632211 1.2239947,58.4682738 3.15998567,53.4604217 C5.09597664,48.4527282 7.80635606,44.0902857 11.2911636,40.3730942 C14.7759315,36.6560613 18.944767,33.7391889 23.7977097,31.6223976 C28.6505731,29.5058045 33.9680854,28.4474485 39.7502863,28.4473692 C44.1385008,28.4474485 48.1266549,29.0927789 51.7147486,30.3833602 C55.302763,31.6741001 58.7746449,33.7908122 62.1304339,36.7334169 L62.1304339,29.9961858 L81.8001228,29.9961858 L81.8001228,109.294579 L62.1304339,109.294579 L62.1304339,102.557308 C58.7746449,105.500032 55.302763,107.616704 51.7147486,108.907365 C48.1266549,110.198025 44.1385008,110.843356 39.7502863,110.843356 C33.9680854,110.843356 28.6505731,109.785 23.7977097,107.668327 C18.944767,105.551655 14.7759315,102.634743 11.2911636,98.9176308 C7.80635606,95.2005186 5.09597664,90.8380761 3.15998567,85.8303033 C1.2239947,80.8225305 0.255999215,75.4275833 0.255999215,69.6453823 L0.255999215,69.6453823 Z M42.3058357,92.3352298 C43.8545729,92.3352694 45.4807847,92.1675137 47.1845107,91.8318832 C48.8881574,91.496451 50.6047297,90.9284367 52.3342673,90.1281969 C54.0637256,89.3279968 55.7544863,88.2567548 57.406589,86.9144313 C59.0585728,85.572187 60.6331613,83.920124 62.1304339,81.9582817 L62.1304339,57.3324433 C60.6331613,55.3706804 59.0585728,53.7315429 57.406589,52.4149913 C55.7544863,51.0985984 54.0637256,50.0273167 52.3342673,49.2012654 C50.6047297,48.3752933 48.8881574,47.7944722 47.1845107,47.4588418 C45.4807847,47.1234096 43.8545729,46.9555745 42.3058357,46.9554952 C39.2598258,46.9555745 36.4074229,47.5234303 33.7487064,48.6591816 C31.0899106,49.7950121 28.7796312,51.3825263 26.8178683,53.4217241 C24.856026,55.4610409 23.3201351,57.8616411 22.2101955,60.6236438 C21.1001766,63.3856861 20.5452068,66.3929191 20.5452068,69.6453823 C20.5452068,72.8978852 21.1001766,75.9051182 22.2101955,78.6671209 C23.3201351,81.4291632 24.856026,83.8298031 26.8178683,85.8690009 C28.7796312,87.9082781 31.0899106,89.4957922 33.7487064,90.6315435 C36.4074229,91.767374 39.2598258,92.3352694 42.3058357,92.3352298 L42.3058357,92.3352298 Z"></path>
		<path d="M130.97036,48.0231291 C121.649706,48.0913258 113.553499,54.5862606 113.553499,64.2245838 L113.553499,109.294579 L93.8837705,109.294579 L93.8837705,64.7666677 C93.9935988,46.1989489 110.073212,28.6975557 130.688494,28.4473692 L131.237913,28.4473692 C151.853196,28.6975557 167.932888,46.1989489 168.042637,64.7666677 L168.042637,109.294579 L148.372908,109.294579 L148.372908,64.2245838 C148.372908,54.5862606 140.276701,48.0912861 130.956047,48.0231291"></path>
		<path d="M177.35429,69.6453823 C177.35429,63.8632211 178.322285,58.4682738 180.258276,53.4604217 C182.194267,48.4527282 184.904647,44.0902857 188.389454,40.3730942 C191.874222,36.6560613 196.043058,33.7391889 200.896,31.6223976 C205.748864,29.5058045 211.066376,28.4474485 216.848617,28.4473692 C221.236831,28.4474485 225.237871,29.0927789 228.851777,30.3833602 C232.465563,31.6741001 235.924559,33.7650005 239.228725,36.655982 L239.228725,6.22213106 L258.898414,6.22213106 L258.898414,109.294579 L239.228725,109.294579 L239.228725,102.634743 C235.924559,105.577467 232.465563,107.681253 228.851777,108.946102 C225.237871,110.210951 221.236831,110.843356 216.848617,110.843356 C211.066376,110.843356 205.748864,109.785 200.896,107.668327 C196.043058,105.551655 191.874222,102.634743 188.389454,98.9176308 C184.904647,95.2005186 182.194267,90.8380761 180.258276,85.8303033 C178.322285,80.8225305 177.35429,75.4275833 177.35429,69.6453823 L177.35429,69.6453823 Z M219.404126,92.3352298 C220.952864,92.3352694 222.579115,92.1675137 224.282841,91.8318832 C225.986448,91.496451 227.70302,90.9284367 229.432558,90.1281969 C231.162016,89.3279968 232.852777,88.2567548 234.50488,86.9144313 C236.156864,85.572187 237.731492,83.920124 239.228725,81.9582817 L239.228725,57.3324433 C237.731492,55.3706804 236.156864,53.7315429 234.50488,52.4149913 C232.852777,51.0985984 231.162016,50.0273167 229.432558,49.2012654 C227.70302,48.3752933 225.986448,47.7944722 224.282841,47.4588418 C222.579115,47.1234096 220.952864,46.9555745 219.404126,46.9554952 C216.358117,46.9555745 213.505753,47.5234303 210.846997,48.6591816 C208.188201,49.7950121 205.877922,51.3825263 203.916159,53.4217241 C201.954317,55.4610409 200.418426,57.8616411 199.308486,60.6236438 C198.198467,63.3856861 197.643498,66.3929191 197.643537,69.6453823 C197.643498,72.8978852 198.198467,75.9051182 199.308486,78.6671209 C200.418426,81.4291632 201.954317,83.8298031 203.916159,85.8690009 C205.877922,87.9082781 208.188201,89.4957922 210.846997,90.6315435 C213.505753,91.767374 216.358117,92.3352694 219.404126,92.3352298 L219.404126,92.3352298 Z"></path>
		<path d="M351.011268,92.3352298 C353.953952,92.3352694 356.728841,91.78026 359.336053,90.6702807 C361.943147,89.5603411 364.214689,87.9986386 366.150759,85.9851731 C368.086671,83.9717472 369.609676,81.584033 370.719694,78.8219906 C371.829594,76.059988 372.384604,73.0011317 372.384644,69.6453823 C372.384604,66.3412958 371.816708,63.3082513 370.680997,60.5461693 C369.545127,57.7842062 367.99635,55.396492 366.034587,53.3829868 C364.072745,51.3696403 361.801163,49.7950121 359.219881,48.6591816 C356.63852,47.5234303 353.90229,46.9555745 351.011268,46.9554952 C348.068505,46.9555745 345.293577,47.5234303 342.686483,48.6591816 C340.079311,49.7950121 337.807729,51.3696403 335.871778,53.3829868 C333.935747,55.396492 332.399856,57.7842062 331.264105,60.5461693 C330.128314,63.3082513 329.560419,66.3412958 329.560419,69.6453823 C329.560419,73.0011317 330.115388,76.059988 331.225407,78.8219906 C332.335347,81.584033 333.858312,83.9717472 335.794343,85.9851731 C337.730294,87.9986386 340.001876,89.5603411 342.609049,90.6702807 C345.216142,91.78026 348.016882,92.3352694 351.011268,92.3352298 L351.011268,92.3352298 Z M351.011268,110.843356 C345.280691,110.843356 339.885704,109.810811 334.826347,107.745762 C329.766912,105.680713 325.33996,102.802538 321.545413,99.1112378 C317.750866,95.4199373 314.756519,91.0574948 312.562372,86.0239103 C310.368265,80.9903259 309.271211,75.5308298 309.271211,69.6453823 C309.271211,63.914884 310.368265,58.5457087 312.562372,53.5378962 C314.756519,48.5301631 317.73794,44.1677206 321.506676,40.4505291 C325.275411,36.7334962 329.702402,33.8036981 334.78761,31.6611349 C339.872818,29.5186905 345.280691,28.4474485 351.011268,28.4473692 C356.741767,28.4474485 362.136754,29.5186905 367.196189,31.6611349 C372.255546,33.8036981 376.669612,36.7334962 380.438387,40.4505291 C384.207082,44.1677206 387.188504,48.5301631 389.38269,53.5378962 C391.576758,58.5457087 392.673811,63.914884 392.673891,69.6453823 C392.673811,75.5308298 391.576758,80.9903259 389.38269,86.0239103 C387.188504,91.0574948 384.194157,95.4199373 380.399689,99.1112378 C376.605063,102.802538 372.190997,105.680713 367.157492,107.745762 C362.123828,109.810811 356.741767,110.843356 351.011268,110.843356 L351.011268,110.843356 Z"></path>
		<path d="M411.322097,23.7867648 C409.728438,23.7868441 408.221966,23.4755186 406.802684,22.8529865 C405.383322,22.2305735 404.138337,21.3839838 403.06765,20.313178 C401.996924,19.2425307 401.150294,17.9975459 400.527802,16.5781444 C399.90527,15.158941 399.594024,13.6524698 399.594024,12.0587307 C399.594024,10.4652295 399.90527,8.9463084 400.527802,7.50196747 C401.150294,6.05786443 401.996924,4.80042982 403.06765,3.72958432 C404.138337,2.65897671 405.383322,1.81238707 406.802684,1.18977573 C408.221966,0.567362645 409.728438,0.256116452 411.322097,0.255997504 C412.915678,0.256116452 414.434599,0.567243697 415.878821,1.18977573 C417.323003,1.81238707 418.580478,2.65897671 419.651204,3.72958432 C420.721891,4.80042982 421.56852,6.05786443 422.191052,7.50196747 C422.813545,8.9463084 423.124791,10.4652295 423.124831,12.0587307 C423.124791,13.6524698 422.813584,15.158941 422.191052,16.5781444 C421.56852,17.9975459 420.721891,19.2425307 419.651204,20.313178 C418.580478,21.3839838 417.323003,22.2305735 415.878821,22.8529865 C414.434599,23.4755979 412.915678,23.7868441 411.322097,23.7867648 L411.322097,23.7867648 Z"></path>
		<path d="M401.485845,29.9961858 L421.155574,29.9961858 L421.155574,109.294579 L401.485845,109.294579 L401.485845,29.9961858 Z"></path>
		<path d="M430.199873,69.6453823 C430.199873,63.8632211 431.167868,58.4682738 433.103859,53.4604217 C435.03985,48.4527282 437.75023,44.0902857 441.235037,40.3730942 C444.719805,36.6560613 448.888641,33.7391889 453.741583,31.6223976 C458.594447,29.5058045 463.911959,28.4474485 469.6942,28.4473692 C474.082414,28.4474485 478.083454,29.0927789 481.697359,30.3833602 C485.311146,31.6741001 488.770142,33.7650005 492.074308,36.655982 L492.074308,6.22213106 L511.743996,6.22213106 L511.743996,109.294579 L492.074308,109.294579 L492.074308,102.634743 C488.770142,105.577467 485.311146,107.681253 481.697359,108.946102 C478.083454,110.210951 474.082414,110.843356 469.6942,110.843356 C463.911959,110.843356 458.594447,109.785 453.741583,107.668327 C448.888641,105.551655 444.719805,102.634743 441.235037,98.9176308 C437.75023,95.2005186 435.03985,90.8380761 433.103859,85.8303033 C431.167868,80.8225305 430.199873,75.4275833 430.199873,69.6453823 L430.199873,69.6453823 Z M472.249709,92.3352298 C473.798447,92.3352694 475.424698,92.1675137 477.128424,91.8318832 C478.832031,91.496451 480.548603,90.9284367 482.278141,90.1281969 C484.007599,89.3279968 485.69836,88.2567548 487.350463,86.9144313 C489.002446,85.572187 490.577075,83.920124 492.074308,81.9582817 L492.074308,57.3324433 C490.577075,55.3706804 489.002446,53.7315429 487.350463,52.4149913 C485.69836,51.0985984 484.007599,50.0273167 482.278141,49.2012654 C480.548603,48.3752933 478.832031,47.7944722 477.128424,47.4588418 C475.424698,47.1234096 473.798447,46.9555745 472.249709,46.9554952 C469.203699,46.9555745 466.351336,47.5234303 463.69258,48.6591816 C461.033784,49.7950121 458.723505,51.3825263 456.761742,53.4217241 C454.7999,55.4610409 453.264009,57.8616411 452.154069,60.6236438 C451.04405,63.3856861 450.48908,66.3929191 450.48912,69.6453823 C450.48908,72.8978852 451.04405,75.9051182 452.154069,78.6671209 C453.264009,81.4291632 454.7999,83.8298031 456.761742,85.8690009 C458.723505,87.9082781 461.033784,89.4957922 463.69258,90.6315435 C466.351336,91.767374 469.203699,92.3352694 472.249709,92.3352298 L472.249709,92.3352298 Z"></path>
		<path d="M307.396914,47.7854719 C294.215182,47.7854719 288.402293,54.5862606 288.402293,64.2245838 L288.402293,109.294579 L268.732564,109.294579 L268.732564,64.7666677 C268.842392,46.1989489 279.567738,27.9450536 307.396914,27.9450536"></path>
	</g>
</svg>
